icons/circle/48/jabref.svg

<svg xmlns="http://www.w3.org/2000/svg" viewBox="0 0 48 48">
 <defs>
  <linearGradient id="linearGradient3764" x1="1" x2="47" gradientUnits="userSpaceOnUse" gradientTransform="matrix(0,-1,1,0,-1.5e-6,47.999998)">
   <stop style="stop-color:#4e5e8e;stop-opacity:1"/>
   <stop offset="1" style="stop-color:#55679b;stop-opacity:1"/>
  </linearGradient>
  <linearGradient id="linearGradient4154" y1="36" x2="0" y2="12" gradientUnits="userSpaceOnUse">
   <stop style="stop-color:#f4f4f4;stop-opacity:1"/>
   <stop offset="1" style="stop-color:#f9f9f9;stop-opacity:1"/>
  </linearGradient>
 </defs>
 <g>
  <path d="m 36.31 5 c 5.859 4.062 9.688 10.831 9.688 18.5 c 0 12.426 -10.07 22.5 -22.5 22.5 c -7.669 0 -14.438 -3.828 -18.5 -9.688 c 1.037 1.822 2.306 3.499 3.781 4.969 c 4.085 3.712 9.514 5.969 15.469 5.969 c 12.703 0 23 -10.298 23 -23 c 0 -5.954 -2.256 -11.384 -5.969 -15.469 c -1.469 -1.475 -3.147 -2.744 -4.969 -3.781 z m 4.969 3.781 c 3.854 4.113 6.219 9.637 6.219 15.719 c 0 12.703 -10.297 23 -23 23 c -6.081 0 -11.606 -2.364 -15.719 -6.219 c 4.16 4.144 9.883 6.719 16.219 6.719 c 12.703 0 23 -10.298 23 -23 c 0 -6.335 -2.575 -12.06 -6.719 -16.219 z" style="opacity:0.05"/>
  <path d="m 41.28 8.781 c 3.712 4.085 5.969 9.514 5.969 15.469 c 0 12.703 -10.297 23 -23 23 c -5.954 0 -11.384 -2.256 -15.469 -5.969 c 4.113 3.854 9.637 6.219 15.719 6.219 c 12.703 0 23 -10.298 23 -23 c 0 -6.081 -2.364 -11.606 -6.219 -15.719 z" style="opacity:0.1"/>
  <path d="m 31.25 2.375 c 8.615 3.154 14.75 11.417 14.75 21.13 c 0 12.426 -10.07 22.5 -22.5 22.5 c -9.708 0 -17.971 -6.135 -21.12 -14.75 a 23 23 0 0 0 44.875 -7 a 23 23 0 0 0 -16 -21.875 z" style="opacity:0.2"/>
 </g>
 <g>
  <path d="m 24 1 c 12.703 0 23 10.297 23 23 c 0 12.703 -10.297 23 -23 23 -12.703 0 -23 -10.297 -23 -23 0 -12.703 10.297 -23 23 -23 z" style="fill:url(#linearGradient3764);fill-opacity:1"/>
 </g>
 <g>
  <path d="m 40.03 7.531 c 3.712 4.084 5.969 9.514 5.969 15.469 0 12.703 -10.297 23 -23 23 c -5.954 0 -11.384 -2.256 -15.469 -5.969 4.178 4.291 10.01 6.969 16.469 6.969 c 12.703 0 23 -10.298 23 -23 0 -6.462 -2.677 -12.291 -6.969 -16.469 z" style="opacity:0.1"/>
 </g>
 <path d="m 14.904 13 c 4.339 5.754 5.576 11.726 5.389 15.734 c -0.267 5.719 -4.98 6.557 -8.293 4.266 c 0 2.143 1.755 4 4.907 4 c 3.505 0 5.735 -3.135 6.093 -6 1 -8 -0.452 -16 -2 -17 -0.845 -0.546 -2.592 -1 -6.096 -1 m 8.096 1 c -0.031 3.57 7.786 4.482 7.756 6.987 -0.022 1.852 -4.704 1.934 -4.672 5.085 c 0.043 4.152 5.892 9.586 11.916 10.928 -3.381 -4.054 -9.613 -10.597 -7.156 -12 8.242 -4.72 0.589 -9.718 -7.844 -10.996" style="fill:#000;opacity:0.1;fill-opacity:1;stroke:none;fill-rule:evenodd"/>
 <path d="m 13.904 12 c 4.339 5.754 5.576 11.726 5.389 15.734 c -0.267 5.719 -4.98 6.557 -8.293 4.266 c 0 2.143 1.755 4 4.907 4 c 3.505 0 5.735 -3.135 6.093 -6 1 -8 -0.452 -16 -2 -17 -0.845 -0.546 -2.592 -1 -6.096 -1 m 8.096 1 c -0.031 3.57 7.786 4.482 7.756 6.987 -0.022 1.852 -4.704 1.934 -4.672 5.085 c 0.043 4.152 5.892 9.586 11.916 10.928 -3.381 -4.054 -9.613 -10.597 -7.156 -12 8.242 -4.72 0.589 -9.718 -7.844 -10.996" style="fill:url(#linearGradient4154);fill-opacity:1;stroke:none;fill-rule:evenodd"/>
</svg>

<svg xmlns="http://www.w3.org/2000/svg" viewBox="0 0 48 48">
  <defs>
    <linearGradient id="a" x1="1" x2="47" gradientUnits="userSpaceOnUse" gradientTransform="rotate(-90 24 24)">
      <stop stop-color="#4e5e8e"/>
      <stop offset="1" stop-color="#55679b"/>
    </linearGradient>
    <linearGradient id="b" y1="36" x2="0" y2="12" gradientUnits="userSpaceOnUse">
      <stop stop-color="#f4f4f4"/>
      <stop offset="1" stop-color="#f9f9f9"/>
    </linearGradient>
  </defs>
  <path d="M36.31 5c5.859 4.062 9.688 10.831 9.688 18.5 0 12.426-10.07 22.5-22.5 22.5-7.669 0-14.438-3.828-18.5-9.688a23.24 23.24 0 0 0 3.781 4.969 22.923 22.923 0 0 0 15.469 5.969c12.703 0 23-10.298 23-23a22.92 22.92 0 0 0-5.969-15.469A23.216 23.216 0 0 0 36.31 5zm4.969 3.781A22.911 22.911 0 0 1 47.498 24.5c0 12.703-10.297 23-23 23a22.909 22.909 0 0 1-15.719-6.219C12.939 45.425 18.662 48 24.998 48c12.703 0 23-10.298 23-23 0-6.335-2.575-12.06-6.719-16.219z" opacity=".05"/>
  <path d="M41.28 8.781a22.923 22.923 0 0 1 5.969 15.469c0 12.703-10.297 23-23 23A22.92 22.92 0 0 1 8.78 41.281 22.911 22.911 0 0 0 24.499 47.5c12.703 0 23-10.298 23-23A22.909 22.909 0 0 0 41.28 8.781z" opacity=".1"/>
  <path d="M31.25 2.375C39.865 5.529 46 13.792 46 23.505c0 12.426-10.07 22.5-22.5 22.5-9.708 0-17.971-6.135-21.12-14.75a23 23 0 0 0 44.875-7 23 23 0 0 0-16-21.875z" opacity=".2"/>
  <path d="M24 1c12.703 0 23 10.297 23 23S36.703 47 24 47 1 36.703 1 24 11.297 1 24 1z" fill="url(#a)"/>
  <path d="M40.03 7.531A22.922 22.922 0 0 1 45.999 23c0 12.703-10.297 23-23 23A22.92 22.92 0 0 1 7.53 40.031C11.708 44.322 17.54 47 23.999 47c12.703 0 23-10.298 23-23 0-6.462-2.677-12.291-6.969-16.469z" opacity=".1"/>
  <path d="M14.904 13c4.339 5.754 5.576 11.726 5.389 15.734-.267 5.719-4.98 6.557-8.293 4.266 0 2.143 1.755 4 4.907 4 3.505 0 5.735-3.135 6.093-6 1-8-.452-16-2-17-.845-.546-2.592-1-6.096-1M23 14c-.031 3.57 7.786 4.482 7.756 6.987-.022 1.852-4.704 1.934-4.672 5.085C26.127 30.224 31.976 35.658 38 37c-3.381-4.054-9.613-10.597-7.156-12 8.242-4.72.589-9.718-7.844-10.996" opacity=".1" fill-rule="evenodd"/>
  <path d="M13.904 12c4.339 5.754 5.576 11.726 5.389 15.734-.267 5.719-4.98 6.557-8.293 4.266 0 2.143 1.755 4 4.907 4 3.505 0 5.735-3.135 6.093-6 1-8-.452-16-2-17-.845-.546-2.592-1-6.096-1M22 13c-.031 3.57 7.786 4.482 7.756 6.987-.022 1.852-4.704 1.934-4.672 5.085C25.127 29.224 30.976 34.658 37 36c-3.381-4.054-9.613-10.597-7.156-12 8.242-4.72.589-9.718-7.844-10.996" fill="url(#b)" fill-rule="evenodd"/>
</svg>
